!!!COM: Palestrina, Giovanni Perluigi da
!!!OPR: Missa De Beata Marie Virginis (II)
!!!OMD: Credo
!!!OTL: Confiteor
**kern	**kern	**kern	**kern	**kern
*Ibass	*Itenor	*Itenor	*Icalto	*Icant
!Bassus	!Tenor 2	!Tenor 1	!Altus	!Cantus
*clefF4	*clefGv2	*clefGv2	*clefG2	*clefG2
*k[]	*k[]	*k[]	*k[]	*k[]
*G:mix	*G:mix	*G:mix	*G:mix	*G:mix
*M4/2	*M4/2	*M4/2	*M4/2	*M4/2
=118	=118	=118	=118	=118
0r	0r	0r	1g	2r
.	.	.	.	2g
.	.	.	2.f	2.a
.	.	.	4e	4g
=119	=119	=119	=119	=119
0r	2r	2r	2f	2a
.	2G	2g	2d	2b
.	2.A	2.f	1c	1cc
.	4G	4e	.	.
=120	=120	=120	=120	=120
2r	2A	2f	2r	0r
2G	2B	2d	2g	.
2.F	1c	[1f	2.a	.
4E	.	.	4g	.
=121	=121	=121	=121	=121
2F	1r	1f]	2a	2r
2D	.	.	2b	2dd
1C	2r	[1g	1cc	2ee
.	2G	.	.	[2gg
=122	=122	=122	=122	=122
0r	2B	1g]	2r	4gg]
.	.	.	.	4ff
.	2c	.	2g	2ee
.	2G	2r	2b	2dd
.	4c	2e	2cc	[2ee
.	4d	.	.	.
=123	=123	=123	=123	=123
0r	4e	2g	1b	2ee]
.	4f#	.	.	.
.	1g	2G	.	4dd
.	.	.	.	4cc
.	.	1d	1a	2.dd
.	2f#	.	.	.
.	.	.	.	4cc
=124	=124	=124	=124	=124
2r	1g	1G	1g	2b
2C	.	.	.	1ee
2E	1r	2r	1c	.
2F	.	2A	.	2cc
=125	=125	=125	=125	=125
2G	0r	2B	2e	2b
2A	.	2c	2f	2a
2G	.	2d	2g	2b
[2c	.	[2e	2a	2cc
=126	=126	=126	=126	=126
4c]	0r	4e]	2g	0r
4B	.	4d	.	.
4A	.	2e	1cc	.
4G	.	.	.	.
2A	.	2f#	.	.
2G	.	[2g	2b	.
=127	=127	=127	=127	=127
1d	1r	4g]	1a	0r
.	.	8f#	.	.
.	.	8e	.	.
.	.	2f#	.	.
[1G	2r	1g	2g	.
.	2G	.	[2d	.
=128	=128	=128	=128	=128
2G]	2B	1r	2d]	1g
2E	2c	.	2e	.
2D	2d	2r	2f	2b
2C	2e	2G	2g	2cc
=129	=129	=129	=129	=129
2G	2d	2B	2.g	2dd
2C	1g	2c	.	2ee
.	.	.	4a	.
[1G	.	2d	[1b	2dd
.	4G	2e	.	[2gg
.	4A	.	.	.
=130	=130	=130	=130	=130
2G]	4B	1d	2b]	2gg]
.	4c	.	.	.
2D	2d	.	2a	1ff
1E	1G	1g	2cc	.
.	.	.	2b	[2ee
=131	=131	=131	=131	=131
2.F	[0A	1f	0a	4ee]
.	.	.	.	4dd
.	.	.	.	1dd
4G	.	.	.	.
1A	.	1e	.	.
.	.	.	.	2cc#
=132	=132	=132	=132	=132
[0D	1A_	[0d	[0f#	[0dd
.	1A_	.	.	.
=133	=133	=133	=133	=133
0D]	0A]	0d]	0f#]	0dd]
*-	*-	*-	*-	*-
!!!CDT: 1525/^1526/-1594/2/2
!!!OCY: Italia
!!!AGN: Mass (Paraphrase)
!!!AST: renaissance, vocal
!!!ASW: Gregorian Mass
!!!PWK: Masses, Book Mantuan I
!!!RNB: Cadence finals: D
!!!YOR: Le Opere Complete, v. 18, p. 126
!!!YOO: Rome, Italy: Fratelli Scalera
!!!END: 1992//
!!!EED: John Miller
!!!YEC: Copyright 2000, John Miller
!!!YEN: United States of America
!!!YEM: Rights to all derivative electronic formats reserved.
!!!YEM: Refer to licensing agreement for further details.
!!!YEM: This file must be accompanied by the licensing agreement.
!!!YEM: A copy of the licensing agreement may be found at http://www.music-cog.ohio-state.edu/HumdrumDatabases/Palestrina/license.txt
!!!EMD: converted to Humdrum by Bret Aarden
